X:1
T:Rigadoon. SenH.137, A
T:Rigadoon. SenH.137, A
T:in Hand C
C:in Hand C
L:1/8
Q:1/2=100
M:4/4
K:G
V:1 treble 
V:1
 a2 | e2 c2 c2 c'2 | a2 f2 f2 a2 | gfed cdef | g6 || d'2 | bc' d'2 g2 d'2 | e'2 c'4 b2 | %8
 ab c'2 f2 a2 | g2 e4 c'2 | fedc G2 B2 | c6 |] %12

